src/pos-icons/folder-swap-outline.svg

<svg height="24" viewBox="0 0 24 24" width="24" xmlns="http://www.w3.org/2000/svg"><path d="m20 18h-16v-10h16m0-2h-8l-2-2h-6a2 2 0 0 0 -2 2v12a2 2 0 0 0 2 2h16a2 2 0 0 0 2-2v-10a2 2 0 0 0 -2-2m-2 7-3-3v2h-6v-2l-3 3 3 3v-2h6v2z"/></svg>

<?xml version="1.0" encoding="UTF-8"?><!DOCTYPE svg PUBLIC "-//W3C//DTD SVG 1.1//EN" "http://www.w3.org/Graphics/SVG/1.1/DTD/svg11.dtd"><svg xmlns="http://www.w3.org/2000/svg" xmlns:xlink="http://www.w3.org/1999/xlink" version="1.1" id="mdi-folder-swap-outline" width="24" height="24" viewBox="0 0 24 24"><path d="M20 18H4V8H20M20 6H12L10 4H4A2 2 0 0 0 2 6V18A2 2 0 0 0 4 20H20A2 2 0 0 0 22 18V8A2 2 0 0 0 20 6M18 13L15 10V12H9V10L6 13L9 16V14H15V16Z" /></svg>
